packages/kaspersky-hexa-ui-icons/src/iconsSVGs/24/StatefulsetK8S.svg

<svg width="24" height="24" viewBox="0 0 24 24" fill="none" xmlns="http://www.w3.org/2000/svg">
<path fill-rule="evenodd" clip-rule="evenodd" d="M9 13C8.04999 13 7.14048 13.1904 6.43147 13.5449C5.78227 13.8695 5 14.503 5 15.5C5 16.497 5.78227 17.1305 6.43147 17.4551C7.14048 17.8096 8.04999 18 9 18C9.95001 18 10.8595 17.8096 11.5685 17.4551C12.2177 17.1305 13 16.497 13 15.5C13 14.503 12.2177 13.8695 11.5685 13.5449C10.8595 13.1904 9.95001 13 9 13ZM7.32589 15.3338C7.19264 15.4004 7.11037 15.4575 7.06037 15.5C7.11037 15.5425 7.19264 15.5996 7.32589 15.6662C7.70267 15.8546 8.29316 16 9 16C9.70684 16 10.2973 15.8546 10.6741 15.6662C10.8074 15.5996 10.8896 15.5425 10.9396 15.5C10.8896 15.4575 10.8074 15.4004 10.6741 15.3338C10.2973 15.1454 9.70684 15 9 15C8.29316 15 7.70267 15.1454 7.32589 15.3338ZM11.0125 15.5804C11.0125 15.5804 11.0128 15.5809 11.0125 15.5804C11.0126 15.5803 11.0121 15.5792 11.0109 15.577C11.0114 15.5782 11.0122 15.5798 11.0125 15.5804Z" fill="black"/>
<path fill-rule="evenodd" clip-rule="evenodd" d="M7 4C7 2.89543 7.89543 2 9 2H11C11.5523 2 12 2.44772 12 3C12 3.55228 11.5523 4 11 4H9V7C9 7.55228 8.55228 8 8 8L6 8V10H15C16.1046 10 17 10.8954 17 12V15H18L18 13C18 12.7238 18.1119 12.4738 18.2929 12.2929C18.4286 12.1572 18.6032 12.0603 18.7985 12.0203C18.8636 12.007 18.931 12 19 12H21V10C21 9.44772 21.4477 9 22 9C22.5523 9 23 9.44772 23 10V12C23 13.1046 22.1046 14 21 14H20L20 15C20 16.1046 19.1046 17 18 17H17V19C17 20.1046 16.1046 21 15 21H3C1.89543 21 1 20.1046 1 19V12C1 10.8954 1.89543 10 3 10H4V8C4 6.89543 4.89543 6 6 6H7V4ZM3 19V12H15V19H3Z" fill="black"/>
<path d="M18 3C18 2.44772 18.4477 2 19 2H21C22.1046 2 23 2.89543 23 4V6C23 6.55228 22.5523 7 22 7C21.4477 7 21 6.55228 21 6V4H19C18.4477 4 18 3.55228 18 3Z" fill="black"/>
<path d="M16 6C15.4477 6 15 6.44772 15 7C15 7.55228 15.4477 8 16 8H18V10C18 10.5523 18.4477 11 19 11C19.5523 11 20 10.5523 20 10V8C20 6.89543 19.1046 6 18 6H16Z" fill="black"/>
<path d="M11.5 6C10.9477 6 10.5 6.44772 10.5 7C10.5 7.55228 10.9477 8 11.5 8H12.5C13.0523 8 13.5 7.55228 13.5 7C13.5 6.44772 13.0523 6 12.5 6H11.5Z" fill="black"/>
<path d="M13.5 3C13.5 2.44772 13.9477 2 14.5 2H15.5C16.0523 2 16.5 2.44772 16.5 3C16.5 3.55228 16.0523 4 15.5 4H14.5C13.9477 4 13.5 3.55228 13.5 3Z" fill="black"/>
</svg>

<svg xmlns="http://www.w3.org/2000/svg" width="24" height="24" fill="none" viewBox="0 0 24 24"><path fill="#000" fill-rule="evenodd" d="M9 2c-1.1046 0-2 .8954-2 2v2H6c-1.1046 0-2 .8954-2 2v2H3c-1.1046 0-2 .8954-2 2v7c0 1.1046.8954 2 2 2h12c1.1046 0 2-.8954 2-2v-2h1c1.1046 0 2-.8954 2-2v-1h1c1.1046 0 2-.8954 2-2v-2c0-.5523-.4477-1-1-1s-1 .4477-1 1v2h-2q-.1037.0002-.2015.0203a1 1 0 0 0-.5056.2726A.997.997 0 0 0 18 13v2h-1v-3c0-1.1046-.8954-2-2-2H6V8h2c.5523 0 1-.4477 1-1V4h2c.5523 0 1-.4477 1-1s-.4477-1-1-1zm4.5 1c0-.5523.4477-1 1-1h1c.5523 0 1 .4477 1 1s-.4477 1-1 1h-1c-.5523 0-1-.4477-1-1M18 3c0-.5523.4477-1 1-1h2c1.1046 0 2 .8954 2 2v2c0 .5523-.4477 1-1 1s-1-.4477-1-1V4h-2c-.5523 0-1-.4477-1-1m-6.5 3c-.5523 0-1 .4477-1 1s.4477 1 1 1h1c.5523 0 1-.4477 1-1s-.4477-1-1-1zM16 6c-.5523 0-1 .4477-1 1s.4477 1 1 1h2v2c0 .5523.4477 1 1 1s1-.4477 1-1V8c0-1.1046-.8954-2-2-2zM3 12v7h12v-7zm6 1c-.95 0-1.8595.1904-2.5685.5449C5.7823 13.8695 5 14.503 5 15.5s.7823 1.6305 1.4315 1.9551C7.1405 17.8096 8.05 18 9 18s1.8595-.1904 2.5685-.5449C12.2177 17.1305 13 16.497 13 15.5s-.7823-1.6305-1.4315-1.9551C10.8595 13.1904 9.95 13 9 13m-1.6741 2.3338c-.1333.0666-.2155.1237-.2655.1662.05.0425.1322.0996.2655.1662C7.7027 15.8546 8.2932 16 9 16s1.2973-.1454 1.6741-.3338c.1333-.0666.2155-.1237.2655-.1662-.05-.0425-.1322-.0996-.2655-.1662C10.2973 15.1454 9.7068 15 9 15s-1.2973.1454-1.6741.3338m3.685.2432.0016.0034z"/></svg>
